Newaita-dark/.DP/32/simplescreenrecorder-error.svg

<svg xmlns="http://www.w3.org/2000/svg" xmlns:xlink="http://www.w3.org/1999/xlink" width="32px" height="32px" viewBox="0 0 32 32" version="1.1">
<g id="surface1">
<path style=" stroke:none;fill-rule:nonzero;fill:rgb(95.686275%,26.274511%,21.176471%);fill-opacity:1;" d="M 5.292969 5.542969 C 3.824219 5.542969 2.644531 6.722656 2.644531 8.1875 L 2.644531 10.910156 C 2.644531 11.601562 3.238281 12.15625 3.96875 12.15625 C 4.703125 12.15625 5.292969 11.601562 5.292969 10.910156 L 5.292969 9.511719 C 5.292969 8.777344 5.882812 8.1875 6.613281 8.1875 L 7.9375 8.1875 C 8.671875 8.1875 9.261719 7.632812 9.261719 6.941406 L 9.261719 6.785156 C 9.261719 6.097656 8.671875 5.542969 7.9375 5.542969 Z M 23.816406 5.542969 C 23.082031 5.542969 22.492188 6.097656 22.492188 6.785156 L 22.492188 6.941406 C 22.492188 7.632812 23.082031 8.1875 23.816406 8.1875 L 25.136719 8.1875 C 25.871094 8.1875 26.460938 8.777344 26.460938 9.511719 L 26.460938 10.910156 C 26.460938 11.601562 27.050781 12.15625 27.785156 12.15625 C 28.515625 12.15625 29.105469 11.601562 29.105469 10.910156 L 29.105469 8.1875 C 29.105469 6.722656 27.925781 5.542969 26.460938 5.542969 Z M 3.96875 19.773438 C 3.238281 19.773438 2.644531 20.332031 2.644531 21.019531 L 2.644531 23.742188 C 2.644531 25.207031 3.824219 26.390625 5.292969 26.390625 L 7.9375 26.390625 C 8.671875 26.390625 9.261719 25.832031 9.261719 25.144531 L 9.261719 24.988281 C 9.261719 24.300781 8.671875 23.742188 7.9375 23.742188 L 6.613281 23.742188 C 5.882812 23.742188 5.292969 23.152344 5.292969 22.417969 L 5.292969 21.019531 C 5.292969 20.332031 4.703125 19.773438 3.96875 19.773438 Z M 27.785156 19.773438 C 27.050781 19.773438 26.460938 20.332031 26.460938 21.019531 L 26.460938 22.417969 C 26.460938 23.152344 25.871094 23.742188 25.136719 23.742188 L 23.816406 23.742188 C 23.082031 23.742188 22.492188 24.300781 22.492188 24.988281 L 22.492188 25.144531 C 22.492188 25.832031 23.082031 26.390625 23.816406 26.390625 L 26.460938 26.390625 C 27.925781 26.390625 29.105469 25.207031 29.105469 23.742188 L 29.105469 21.019531 C 29.105469 20.332031 28.515625 19.773438 27.785156 19.773438 Z M 27.785156 19.773438 "/>
<path style=" stroke:none;fill-rule:nonzero;fill:rgb(95.686275%,26.274511%,21.176471%);fill-opacity:1;" d="M 10.84375 10.980469 C 10.324219 11.5 10.324219 12.332031 10.84375 12.851562 L 14.121094 16.128906 L 10.84375 19.402344 C 10.324219 19.917969 10.324219 20.753906 10.84375 21.269531 C 11.363281 21.789062 12.199219 21.789062 12.714844 21.269531 L 15.988281 17.996094 L 19.265625 21.269531 C 19.785156 21.789062 20.617188 21.789062 21.136719 21.269531 C 21.652344 20.753906 21.652344 19.917969 21.136719 19.402344 L 17.863281 16.128906 L 21.136719 12.851562 C 21.652344 12.332031 21.652344 11.5 21.136719 10.980469 C 20.617188 10.464844 19.785156 10.464844 19.265625 10.980469 L 15.988281 14.253906 L 12.714844 10.980469 C 12.199219 10.464844 11.363281 10.464844 10.84375 10.980469 Z M 10.84375 10.980469 "/>
</g>
</svg>

<svg xmlns="http://www.w3.org/2000/svg" width="32" height="32"><g fill="#f44336"><path d="M5.293 5.543a2.642 2.642 0 0 0-2.648 2.644v2.723c0 .692.59 1.246 1.324 1.246.734 0 1.324-.554 1.324-1.246V9.512c0-.735.59-1.325 1.32-1.325h1.324c.735 0 1.325-.554 1.325-1.246V6.79c0-.691-.59-1.246-1.325-1.246zm18.523 0c-.734 0-1.324.555-1.324 1.246v.152c0 .692.59 1.247 1.324 1.247h1.32c.735 0 1.325.59 1.325 1.324v1.398c0 .692.59 1.246 1.324 1.246.73 0 1.32-.554 1.32-1.246V8.187a2.639 2.639 0 0 0-2.644-2.644zM3.97 19.773c-.735 0-1.324.555-1.324 1.247v2.722a2.643 2.643 0 0 0 2.648 2.649h2.644c.735 0 1.325-.559 1.325-1.246v-.157c0-.687-.59-1.246-1.325-1.246H6.614c-.73 0-1.32-.59-1.32-1.32V21.02c0-.692-.59-1.247-1.324-1.247zm23.816 0c-.734 0-1.324.555-1.324 1.247v1.402c0 .73-.59 1.32-1.324 1.32h-1.32c-.735 0-1.325.559-1.325 1.246v.157c0 .687.59 1.246 1.324 1.246h2.645a2.64 2.64 0 0 0 2.644-2.649V21.02c0-.692-.59-1.247-1.32-1.247zm0 0M10.844 10.98a1.325 1.325 0 0 0 0 1.872l3.273 3.273-3.273 3.277a1.325 1.325 0 0 0 0 1.871c.52.516 1.355.516 1.87 0l3.274-3.277 3.278 3.277a1.325 1.325 0 0 0 1.87 0 1.325 1.325 0 0 0 0-1.87l-3.277-3.278 3.278-3.273a1.325 1.325 0 0 0 0-1.872 1.318 1.318 0 0 0-1.871 0l-3.278 3.274-3.273-3.274a1.318 1.318 0 0 0-1.871 0zm0 0"/></g></svg>
